public/assets/img/products/safepods/key-advs/icon2.svg

<svg id="e4m80fX7nzF1" xmlns="http://www.w3.org/2000/svg" xmlns:xlink="http://www.w3.org/1999/xlink" viewBox="0 0 52 52" shape-rendering="geometricPrecision" text-rendering="geometricPrecision" project-id="f8291e6d0fbe43689c5be929b95c1b4d" export-id="50c2421df74045f88d37eb6e97e08262" cached="false">
<style><![CDATA[
#e4m80fX7nzF2_to {animation: e4m80fX7nzF2_to__to 3000ms linear infinite normal forwards}@keyframes e4m80fX7nzF2_to__to { 0% {transform: translate(34.303614px,34.200109px)} 33.333333% {transform: translate(26.303614px,26.200109px)} 100% {transform: translate(26.303614px,26.200109px)}} #e4m80fX7nzF3 {animation: e4m80fX7nzF3_s_do 3000ms linear infinite normal forwards}@keyframes e4m80fX7nzF3_s_do { 0% {stroke-dashoffset: 13.16} 33.333333% {stroke-dashoffset: 13.16} 66.666667% {stroke-dashoffset: 0} 100% {stroke-dashoffset: 0}}
]]></style>
<g id="e4m80fX7nzF2_to" transform="translate(34.303614,34.200109)"><path d="M45.4093,51c-.1974,0-.3023-.0817-.364-.145L34.8356,40.6453c-.1959-.1974-.1959-.5167,0-.7141l2.1915-2.1915-4.161-4.161-.7187.6138c-3.4392,2.9411-7.7961,4.5604-12.2702,4.5604C9.46854,38.7545,1,30.2859,1,19.8772C1,9.46854,9.46854,1,19.8772,1s18.8773,8.46854,18.8773,18.8772c0,4.4895-1.6194,8.8464-4.5589,12.2687l-.6169.7187l4.1625,4.1625l2.1916-2.1915c.0956-.0956.222-.1481.3562-.1481s.2607.0525.3563.1481L50.9368,45.1271c.054.0817.0817.1758.0817.2745c0,.1342-.0524.2606-.1481.3563L45.7733,50.855c-.0956.0895-.2236.145-.364.145ZM35.9136,40.3122l9.4803,9.4818l4.3831-4.3831-9.4818-9.4818-4.3831,4.3831h.0015ZM19.8772,2.03331c-9.8473,0-17.85931,8.01199-17.85931,17.85939c0,9.8473,8.01201,17.8593,17.85931,17.8593s17.8594-8.012,17.8594-17.8593c0-9.8474-8.0105-17.85939-17.8594-17.85939Z" transform="translate(-26.009251,-26)" fill="none" stroke="#fff"/></g><path id="e4m80fX7nzF3" d="M15.2266,20.9658l3.2079,3.214l6.0934-6.0873" fill="none" stroke="#fff" stroke-width="2" stroke-linecap="round" stroke-dashoffset="13.16" stroke-dasharray="13.16"/></svg>

<svg width="52" height="52" viewBox="0 0 52 52" fill="none" xmlns="http://www.w3.org/2000/svg">
<path d="M45.4093 51C45.2119 51 45.107 50.9183 45.0453 50.855L34.8356 40.6453C34.6397 40.4479 34.6397 40.1286 34.8356 39.9312L37.0271 37.7397L32.8661 33.5787L32.1474 34.1925C28.7082 37.1336 24.3513 38.7529 19.8772 38.7529C9.46854 38.7545 1 30.2859 1 19.8772C1 9.46854 9.46854 1 19.8772 1C30.2859 1 38.7545 9.46854 38.7545 19.8772C38.7545 24.3667 37.1351 28.7236 34.1956 32.1459L33.5787 32.8646L37.7412 37.0271L39.9328 34.8356C40.0284 34.74 40.1548 34.6875 40.289 34.6875C40.4232 34.6875 40.5497 34.74 40.6453 34.8356L50.9368 45.1271C50.9907 45.2088 51.0185 45.3029 51.0185 45.4016C51.0185 45.5358 50.9661 45.6622 50.8704 45.7579L45.7733 50.855C45.6777 50.9445 45.5497 51 45.4093 51ZM35.9136 40.3122L45.3939 49.794L49.777 45.4109L40.2952 35.9291L35.9121 40.3122H35.9136ZM19.8772 2.03331C10.0299 2.03331 2.01789 10.0453 2.01789 19.8927C2.01789 29.74 10.0299 37.752 19.8772 37.752C29.7246 37.752 37.7366 29.74 37.7366 19.8927C37.7366 10.0453 29.7261 2.03331 19.8772 2.03331Z" fill="white" stroke="white"/>
<path d="M18.3188 22.8133L15.8712 20.3241L15.2266 20.9657L18.4345 24.1798L24.5279 18.0925L23.7815 17.3398L18.3188 22.8133Z" fill="white" stroke="white"/>
</svg>
